X: 7468
T: Cnoc Na gClarac
R: slide
M: 12/8
K: Amixolydian
|:e3 efe ded e2 d|c2 A B2 A a3 a2 g|
e3 efe ded e2 d|c2 A BcB A3 ABd:|
|:e2 a a2 g e2 d Bcd|e2 a a2 g e2 g d2 g|
e2 a a2 g e2 f gfe|d2 d def g2 e f2 d:|

